Sources/FrostedUI/Resources/Icons.xcassets/cubeDisconnected16.imageset/cube-disconnected-16.svg

<svg width="16" height="16" viewBox="0 0 16 16" fill="none" xmlns="http://www.w3.org/2000/svg" data-fui-icon="true">
  <path
    fill-rule="evenodd"
    clip-rule="evenodd"
    d="M7.42065 2.15752C7.5963 2.05438 7.7963 2 8 2C8.2037 2 8.4037 2.05438 8.57935 2.15752L13.1444 4.83801C13.3647 4.96738 13.5 5.20377 13.5 5.45926V10.5407C13.5 10.7962 13.3647 11.0326 13.1444 11.162L8.57935 13.8425C8.4037 13.9456 8.2037 14 8 14C7.79631 14 7.5963 13.9456 7.42065 13.8425L2.85564 11.162C2.63532 11.0326 2.5 10.7962 2.5 10.5407V5.45926C2.5 5.20377 2.63532 4.96738 2.85564 4.83801L7.42065 2.15752ZM8 0.5C7.52926 0.5 7.06706 0.625668 6.66113 0.864023L2.09613 3.54452C1.41707 3.94325 1 4.6718 1 5.45926V10.5407C1 11.3282 1.41707 12.0567 2.09612 12.4555L6.66113 15.136C7.06706 15.3743 7.52926 15.5 8 15.5C8.47074 15.5 8.93294 15.3743 9.33887 15.136L13.9039 12.4555C14.5829 12.0567 15 11.3282 15 10.5407V5.45926C15 4.6718 14.5829 3.94325 13.9039 3.54452L9.33887 0.864023C8.93294 0.625667 8.47074 0.5 8 0.5ZM11.9925 6.52812L8.7452 8.28557V12.1418C8.7452 12.5561 8.40942 12.8918 7.9952 12.8918C7.58099 12.8918 7.2452 12.5561 7.2452 12.1418V8.28279L4.00303 6.52812C3.63874 6.33097 3.50325 5.87583 3.7004 5.51155C3.89755 5.14726 4.35269 5.01177 4.71697 5.20892L7.99777 6.98449L11.2786 5.20892C11.6429 5.01177 12.098 5.14726 12.2951 5.51155C12.4923 5.87583 12.3568 6.33097 11.9925 6.52812Z"
    fill="currentColor"
  />
</svg>

<svg xmlns="http://www.w3.org/2000/svg" width="16" height="16" fill="none" data-fui-icon="true" viewBox="0 0 16 16"><path fill="currentColor" fill-rule="evenodd" d="M7.42 2.158a1.14 1.14 0 0 1 1.16 0l4.564 2.68a.72.72 0 0 1 .356.621v5.082a.72.72 0 0 1-.356.621l-4.565 2.68a1.15 1.15 0 0 1-1.158 0l-4.565-2.68a.72.72 0 0 1-.356-.621V5.459a.72.72 0 0 1 .356-.621zM8 .5c-.47 0-.933.126-1.339.364l-4.565 2.68A2.22 2.22 0 0 0 1 5.46v5.082a2.22 2.22 0 0 0 1.096 1.915l4.565 2.68a2.65 2.65 0 0 0 2.678 0l4.565-2.68A2.22 2.22 0 0 0 15 10.54V5.459a2.22 2.22 0 0 0-1.096-1.914L9.339.864A2.64 2.64 0 0 0 8 .5m3.992 6.028L8.746 8.286v3.856a.75.75 0 1 1-1.5 0v-3.86L4.003 6.529a.75.75 0 1 1 .714-1.32l3.28 1.776L11.28 5.21a.75.75 0 1 1 .713 1.32" clip-rule="evenodd"/></svg>
